exported-svg/message-circle.svg

<svg height="24" viewBox="0 0 24 24" width="24" xmlns="http://www.w3.org/2000/svg"><path d="m3.00086459 10.9999508c.00131883-3.40825498 1.92777058-6.52336846 4.97457328-8.04610551 1.24839274-.6305661 2.62809003-.95734422 4.02542673-.95381704l.5275459.00084692c4.5702768.25216861 8.2195546 3.90144642 8.4725685 8.49926913v.5c.0035288 1.3973366-.3232493 2.7770339-.9528621 4.0235294-1.5236904 3.0487-4.6388039 4.9751517-8.0459487 4.9764689-1.3283036.0034632-2.63954531-.2911035-3.83745863-.8609004l-5.50573114 1.8352438c-.39087901.130293-.76274853-.2415766-.63245553-.6324556l1.83524369-5.505731c-.56979683-1.1979107-.86436367-2.5090993-.860902-3.8363486zm.29056938 8.7096241 4.7513167-1.5837722c.12647293-.0421577.26454459-.0320626.38354056.0280426 1.10782214.5595635 2.33215297.8495366 3.57437987.846299 3.02956-.0011723 5.7985497-1.7135738 7.1538944-4.4254267.559558-1.107811.8495384-2.3321439.8463292-3.5732805l.0007577-.4737468c-.2240877-4.06134213-3.4669917-7.3042461-7.5007878-7.52762843h-.5012929c-1.2411365-.00315692-2.46546947.28682352-3.57517777.84733473-2.70995556 1.35439141-4.42235713 4.12338117-4.42353108 7.1540513-.00323592 1.2411168.28673716 2.4654476.84630072 3.5732697.06010514.118996.07020027.2570677.02804263.3835406z"/></svg>

<?xml version="1.0" encoding="UTF-8"?>
<svg width="24px" height="24px" viewBox="0 0 24 24" version="1.1" xmlns="http://www.w3.org/2000/svg" xmlns:xlink="http://www.w3.org/1999/xlink">
    <!-- Generator: Sketch 55.2 (78181) - https://sketchapp.com -->
    <title>message-circle</title>
    <desc>Created with Sketch.</desc>
    <g id="message-circle" stroke="none" stroke-width="1" fill="none" fill-rule="evenodd">
        <path d="M3.00086459,10.9999508 C3.00218342,7.59169582 4.92863517,4.47658234 7.97543787,2.95384529 C9.22383061,2.32327919 10.6035279,1.99650107 12.0008646,2.00002825 L12.5284105,2.00087517 C17.0986873,2.25304378 20.7479651,5.90232159 21.000979,10.5001443 L21.000979,11.0001443 C21.0045078,12.3974809 20.6777297,13.7771782 20.0481169,15.0236737 C18.5244265,18.0723737 15.409313,19.9988254 12.0021682,20.0001426 C10.6738646,20.0036058 9.36262289,19.7090391 8.16470957,19.1392422 L2.65897843,20.974486 C2.26809942,21.104779 1.8962299,20.7329094 2.0265229,20.3420304 L3.86176659,14.8362994 C3.29196976,13.6383887 2.99740292,12.3272001 3.00086459,10.9999508 Z M3.29143397,19.7095749 L8.04275067,18.1258027 C8.1692236,18.083645 8.30729526,18.0937401 8.42629123,18.1538453 C9.53411337,18.7134088 10.7584442,19.0033819 12.0006711,19.0001443 C15.0302311,18.998972 17.7992208,17.2865705 19.1545655,14.5747176 C19.7141235,13.4669066 20.0041039,12.2425737 20.0008947,11.0014371 L20.0016524,10.5276903 C19.7775647,6.46634817 16.5346607,3.2234442 12.5008646,3.00006187 L11.9995717,3.00006187 C10.7584352,2.99690495 9.53410223,3.28688539 8.42439393,3.8473966 C5.71443837,5.20178801 4.0020368,7.97077777 4.00086285,11.0014479 C3.99762693,12.2425647 4.28760001,13.4668955 4.84716357,14.5747176 C4.90726871,14.6937136 4.91736384,14.8317853 4.8752062,14.9582582 L3.29143397,19.7095749 Z" id="Shape" fill="#000000" fill-rule="nonzero"></path>
    </g>
</svg>
